X:944033
T:The Sound of Silence 3Voice P3
H: 
B: https://musescore.com/georgewu/ptxsoundofsilence, https://musescore.com/abchords321/scores/5449091
C:Simon and Garfunkel (Pentatonix / disturbed)
O:Transcribed by Kevin Fraser
Z:Kevin Fraser
Q:1/4=90
K:AMix
%K:AMix sound=A_b
%K:{g}B{d}BMix score=_{g}B{e}A %concert Pitch
M:4/4
L:1/8
U: R = ///
U: r = //
I:MIDI=program 110
% I:linebreak $
%%MIDI gracedivider 100
V:M gstem=up stem=down name="Melody" sname=Melody transpose=2
V:H gstem=up stem=down name="Chord" sname=Ch transpose=2
V:C gstem=up stem=down name="Bass" sname=Bass  transpose=2
V:3 gstem=up stem=down name="Piper 3" sname=P3  transpose=2
V:4 gstem=up stem=down name="Piper 4" sname=P4 transpose=2
V:BB gstem=up stem=down name="Brass Bass" sname="ABCD-C" transpose=2  octave=-1 clef=bass
V:BC gstem=up stem=down name="Brass Chord" sname="ABCD-D" transpose=2
V:BD gstem=up stem=down name="Brass Chord 2" sname="ABCD-B" transpose=2
V:BG gstem=up stem=down name="Bass Guitar" octave=-1 clef=bass transpose=2
V:P gstem=up stem=down name="Piano" sname="Piano" octave=-1 clef=treble transpose=2
V:Strings gstem=up stem=down name="Strings" sname="Strings" octave=1 clef=treble transpose=2
V:Timpani gstem=up stem=down name="Timpani" sname="Timpani" octave=0 clef=treble transpose=2
V:Guitar gstem=up stem=down name="Guitar" sname="Guitar" octave=0 clef=treble transpose=2
% %landscape off
%%landscape 
% %score {M 1 2}
% %barsperstaff 4
[V:M]
%%MIDI channel 1
[V:H]
%%MIDI channel 1
[V:C]
%%MIDI channel 1
[V:M]                [|!p! Af                  {g}f{g}f {g}A{d}A {g}B{e}A | {gBd}B8-                                                       | B{g}e                {A}e{G}e {g}G{d}G {g}B{d}B | {gAd}A8-                                  | A2                        {g}A{d}A {g}c{d}c {g}e{G}e | $ 
[V:H]                [| !p!Af                  {g}f{g}f {g}A{d}A {g}B{e}A | {g}a3/2{g}a3/2{f}g3/2{f}g3/2{f}g2                              | {g}e2{ag}a2{f}g2     e2                         | {ag}a3/2{f}g3/2f-fe       {g}f/g/a        | {g}a2{g}ce{gfg}f2{ag}a2                            | $
[V:C]                [| !p!Af                  {g}f{g}f {g}A{d}A {g}B{e}A | {g}e3/2{A}e3/2{g}e3/2{A}e3/2{g}e2                              | {g}G2{d}A2{g}B2{e}G2                            | {g}f3/2{g}e3/2{g}c-cB     {g}c/e/f        | {gfg}f2fG{g}A2{g}c2                                 | $
% %barsperstaff 4
[V:M]                 {g}f2{g}fe-e4-                      | e2              {g}A{d}A {g}c{d}c {g}e{G}e |  {g}f2{g}fe-e2           {g}A{d}A            |  [M:2/4]ce- ef   | [M:4/4]{gfg}f4-f2e2                            |$
[V:H]                 {g}d2{c}d{gcd}c-c4                  | {g}AG           {g}fe {g}A2 {d}c2          |  {gdc}d2{g}dc-c2{g}A{d}A                     | [M:2/4]ce- ed-  | [M:4/4]d4-          d2 c2                      | $
[V:C]                 {g}a2{g}A{d}A-A4                    | {ag}ag          {fg}fe {gfg}f2{ag}a2       |  {gBd}B2{g}B{e}A-        a2{g}A{d}A          | [M:2/4]{g}A4  | [M:4/4]A4-          a2 A2                      |$
% %barsperstaff 4
[V:M]  ff-                               f2 ed- dc-              | c4-                  cA fe-                     | ec-cB/A/-A4-                              | [M:2/4]{g}A{d}A           {g}A{d}A                   | [M:4/4]            {gef}e4 e2- eG   | Af-                       f6-             | f3d                       {g}d{e}d- {g}d{e}d/d/      | {g}}e8-                                 | ec              dB- B4                     |] $
[V:H] {g}d{e}d3                         {g}A{d}A- {g}A{d}A-     | {g}A8                                           | {gef}e4f2c2                               | [M:2/4]                   {gcd}c4                    | [M:4/4]            {gde}d4- {gef}e4 | Af-                       f6-             | f3d                       {g}d{e}d- {g}d{e}d/d/      | {g}A8-                              | Ac              dB- B4                     |] $
[V:C]  {g}A{d}A3                         gf- fe-                 | e8                                              | A3B                       c2 e2-          | [M:2/4]                   {gef}e4                    | [M:4/4]            B4- B4-          | B3c                       d2 c2           | B8                                                   | {g}c8-                                 | ec              dB- B4                     |] $
[V:P clef=treble]
%%MIDI channel 2
%%MIDI voice P instrument=1     %Piano
%%MIDI program 1
[V:P]!f![F,,FC]C,A,C  F,CAC |
[V:P] [B,]Fdf [Ge3g3b4]B,E,B, | 
[V:P] E,[B,Be][EAe][B,Be] [Geg] [B,eg] [Eegb] [B,egb] |
[V:P] [F,F][C,c3-f3-a3-]fc [A,c4f4a4]CDC | 
[V:P] F,[Cfa] [Ffa][Cfa] [Aac][Cac] [Face][Cace] |
[V:P] D,A,D [A,EA]-  [A,EA]3- [A,EAA,,]| A,,4  [A,,-A,CE][A,CE][A,CE][A,CE] |D,A,D [A,EA]-  [A,EA]3- [A,EAA,,] |
[V:P][M:2/4] [A,,ac][A,,e]3  |
[V:P][M:4/4]D,A,DA,  FA,DA, | D,A,DA,  FA,DA, | A,EAE  CEAE | F,CFG  A3A, | A,4 | EBef  g3g' | 
[V:P]
[V:BG]
%%MIDI channel 5
%%MIDI program 20
[V:BG]!ppp!F,CA,C F,CA,C |
[V:BG] B,,F,D,F, B,,F,D,F, | 
[V:BG] E,[B,][E][B,] [G] [B,] [E] [B,] |
[V:BG] [F,][C,]fc [A,]CDC | 
[V:BG] F,[C] [F][C] [A][C] [F][C] |
[V:BG] [B,][A,][D][A,]- [A,]3- [A,,] |
[V:BG] [A,,]2 [A,,]2 [A,][E] [A][E] |
[V:BG] [B,][A,][D][A] [A]2 [A]F,, |
[V:BG][M:2/4] [A,,][A,,]3  |
[V:BG][M:4/4]D,A,DA,  FA,DA, | D,A,DA,  FA,DA, | A,EAE  CEAE | F,CFG  A3A, | A,4 | EBef  g3g' | 
[V:BG]
[V:Guitar]
%%MIDI channel 4
%%MIDI program 28
%%MIDI vol 100
[V:Guitar Clef=treble][|!ppp! [F,CA]4 [F,CA]4 |
[V:Guitar][Bfb]4 [Bfb]4 |
[V:Guitar][EBe]4 [EBe]4 |
[V:Guitar][Ace]4 [Gce]4 |
[V:Guitar][CFA]4 [CFA]4 |
[V:Guitar]D,A,D [A,EA]-  [A,EA]3- [A,EAA,,]| A,,4  [A,,-A,CE][A,CE][A,CE][A,CE] |D,A,D [A,EA]-  [A,EA]3- [A,EAA,,] | [M:2/4]A,,4 |
[V:Guitar][M:4/4][DFA]4 [DFA]4 |
[V:Guitar][DFA]4 [DFA]4 |
[V:Guitar][AEC]4 [AEC]4 |
[V:Guitar][FAC]4 [FAC]4 |
[V:Guitar][M:2/4] [ACE]4 |
[V:Guitar][M:4/4][EAC]4 [EAC]4 |
[V:Guitar][Ff]c bc  ac gc |]
[V:Strings]
%%MIDI channel 6
%%MIDI program 49 %strings
%%MIDI vol 100
[V:Strings] [|Z | !mf!D8 | G8 | C8 | A8 | 
[V:Strings] F3 E5 | E2 A6 | F3 E5 |[M:2/4]!mf! E2 A2 |[M:4/4] F7 G | 
[V:Strings] A4 GF2E | E8 | C8 |[M:2/4] A4 |[M:4/4] E8 | F8 | 
[V:Timpani]
%%MIDI channel 8
% %MIDI program 48 %Timpani
%%MIDI program 117 %Taiko DruM
% %MIDI program 119 %Melodic Tom
%%MIDI vol 100
[V:Timpani] Z | !ff!F4 z4 | 
[V:Timpani] Z |
[V:Timpani] C8 | 
[V:Timpani] Z |
[V:Timpani] F2 F E//E//E//E// E//E//E//E// E//E//E//E// E//E//E//E// E//E//E//E//  |
[V:Timpani] Z |
[V:Timpani] [V:Timpani] F2 F E//E//E//E// E//E//E//E// E//E//E//E// E//E//E//E// E//E//E//E//  |
[V:Timpani] [M:2/4]Z |
[V:Timpani] [M:4/4]F2 z6 |
[V:Timpani] A2 z6 |
[V:Timpani] E2 z6 |
[V:Timpani] C2 z6 |
[V:Timpani] [M:2/4]Z |
[V:Timpani] [M:4/4]E2 z5 E |
[V:Timpani] F2 z6 |]


